X:739
T:Reel 739
M:4/4
K:Gmaj
L:1/8
GA|B>G (3GGG G2G2|B>c (3BAG g2fg|aAAA c>A (3ABc |ec (3Bcd e2dc|B<GGF G2G2|B>G (3BAB g2fg|afge fedc|BGAF G2|Bc|dggf g2g2|gfga gfdg|ecAc A2Bc| (3def gf ecdc|B>G (3GGG g2d2|B>G (3GGB d2cB|c2ec d2dc|BdAF G2|
